X: 2
T:Auntie Alice (Brought Us This)
M:4/4
L:1/8
Q:270
C:Hogsnort Rupert's Original Flagon Band
K:A
&quot;Intro:&quot;&quot;A&quot;z2&quot;E&quot;z2&quot;A&quot;z4|:&quot;A&quot;z2&quot;E&quot;z2&quot;A&quot;z2CD|
&quot;A&quot;EczBz2AA|&quot;D&quot;BA3F3F|&quot;E&quot;E2F2DE3|&quot;A&quot;C4-CzCD|!
E2c2BA2z|&quot;D&quot;BA3F3F|&quot;E&quot;E2E2FG3|&quot;A&quot;A4z2CD|
EczBz2AA|&quot;D&quot;BA3F2zF|!
&quot;E&quot;E2F2DE3|&quot;A&quot;C4-CzCD|
E2c2BA3|&quot;D&quot;BA3F2zF|&quot;E&quot;E2E2FG3|&quot;A&quot;A4z2cc|!
&quot;F#&quot;c4-c4|&quot;B&quot;z2z2&quot;E&quot;z4|
&quot;A&quot;EC EC EA3|c6z2|&quot;D&quot;AG AG AF3|&quot;A&quot;E6z2|
czezczz2|!
czezczz2|BBBB BcBA|zGA B-B4|
&quot;A&quot;EC EC EA3|c6z2|&quot;D&quot;AG AG AF3|!
&quot;E&quot;E4zAAB|
&quot;A&quot;czczcc3|&quot;A&quot;c&quot;G&quot;B3&quot;F#&quot;^A3=F|
&quot;B&quot;^F=A FA &quot;E&quot;cc3|&quot;A&quot;A2&quot;E&quot;z2&quot;A&quot;z4:||
